X:1
T:Title
%%score ( 1 2 ) { 3 | 4 }
L:1/8
Q:1/4=110
M:4/4
K:Ab
V:1 treble nm="Grand Piano, Soprano"
V:2 treble 
V:3 bass nm="Choir Pad, Bass"
V:4 bass 
V:1
 [CE][CF] [CA]2- [CA][CA] [DB]2 | [Ec]2 [CE]2 [CE]4 | [CE][CF] [EA]2- [EA][EA] [DB]2- | %3
w: By~Edwin~Othello~Excell * * * * *|||
 [DB][DE] [CA]6 | [CE][CF] [CA]2- [CA][CA] [DB]2 | [Ec]2 [CE]2 [CE]4 | %6
w: |||
 [CE][EF] [EG]2- [EG][=DA] [DG]2 | [=DF]2 E6 | [EB][E=A] [EB]2- [EB][EB] [Ec]2 | %9
w: |||
 [DB]2 [CE]2 [CE]4 | [EA][EB] [Ec]2- [Ec][CA] [CA]2- | [CA][=DA] [_DB]6 | %12
w: |||
 [CA][DB] [Ec]2 [Ae]2 [Ae]2- | [Ae][Ac] [EB]2 [EA]4 | A[AB][Ac][Ac]- [Ac]2 [Ac][EB]- | %15
w: |||
 [EB]2 [EA]6 | [Ac][EB][EA][CE]- [CE]2 [CF][CA]- | [CA]2 [CE]6 | %18
w: |||
 [A,C][B,D][CE][CA]- [CA]2 [CF][CA]- | [CA]2 [DB]6 | [CA][DB] [Ec]2 [Ae]2 [Ae]2- | %21
w: |||
 [Ae][Ac] [EB]2 [EA]4 | A[AB][Ac][Ac]- [Ac]2 [Ac][EB]- | [EB]2 [EA]6 | %24
w: |||
 [CE][CF] [CA]2- [CA][CA] [DB]2 | [Ec]2 [CE]2 [CE]4 | [CE][CF] [EA]2- [EA][EA] [DB]2- | %27
w: |||
 [DB][DE] [CA]6 | [CE][CF] [CA]2- [CA][CA] [DB]2 | [Ec]2 [CE]2 [CE]4 | %30
w: |||
 [CE][EF] [EG]2- [EG][=DA] [DG]2 | [=DF]2 E6 | [EB][E=A] [EB]2- [EB][EB] [Ec]2 | %33
w: |||
 [DB]2 [CE]2 [CE]4 | [EA][EB] [Ec]2- [Ec][CA] [CA]2- | [CA][=DA] [_DB]6 | %36
w: |||
 [CA][DB] [Ec]2 [Ae]2 [Ae]2- | [Ae][Ac] [EB]2 [EA]4 | A[AB][Ac][Ac]- [Ac]2 [Ac][EB]- | %39
w: |||
 [EB]2 [EA]6 | [Ac][EB][EA][CE]- [CE]2 [CF][CA]- | [CA]2 [CE]6 | %42
w: |||
 [A,C][B,D][CE][CA]- [CA]2 [CF][CA]- | [CA]2 [DB]6 | [CA][DB] [Ec]2 [Ae]2 [Ae]2- | %45
w: |||
 [Ae][Ac] [EB]2 [EA]4 | A[AB][Ac][Ac]- [Ac]2 [Ac][EB]- | [EB]2 [EA]6 | %48
w: |||
 [CE][CF] [CA]2- [CA][CA] [DB]2 | [Ec]2 [CE]2 [CE]4 | [CE][CF] [EA]2- [EA][EA] [DB]2- | %51
w: |||
 [DB][DE] [CA]6 | [CE][CF] [CA]2- [CA][CA] [DB]2 | [Ec]2 [CE]2 [CE]4 | %54
w: |||
 [CE][EF] [EG]2- [EG][=DA] [DG]2 | [=DF]2 E6 | [EB][E=A] [EB]2- [EB][EB] [Ec]2 | %57
w: |||
 [DB]2 [CE]2 [CE]4 | [EA][EB] [Ec]2- [Ec][CA] [CA]2- | [CA][=DA] [_DB]6 | %60
w: |||
 [CA][DB] [Ec]2 [Ae]2 [Ae]2- | [Ae][Ac] [EB]2 [EA]4 | A[AB][Ac][Ac]- [Ac]2 [Ac][EB]- | %63
w: |||
 [EB]2 [EA]6 | [Ac][EB][EA][CE]- [CE]2 [CF][CA]- | [CA]2 [CE]6 | %66
w: |||
 [A,C][B,D][CE][CA]- [CA]2 [CF][CA]- | [CA]2 [DB]6 | [CA][DB] [Ec]2 [Ae]2 [Ae]2- | %69
w: |||
 [Ae][Ac] [EB]2 [EA]4 | A[AB][Ac][Ac]- [Ac]2 [Ac][EB]- | [EB]2 [EA]6 | %72
w: |||
 [CE][CF] [CA]2- [CA][CA] [DB]2 | [Ec]2 [CE]2 [CE]4 | [CE][CF] [EA]2- [EA][EA] [DB]2- | %75
w: |||
 [DB][DE] [CA]6 | [CE][CF] [CA]2- [CA][CA] [DB]2 | [Ec]2 [CE]2 [CE]4 | %78
w: |||
 [CE][EF] [EG]2- [EG][=DA] [DG]2 | [=DF]2 E6 | [EB][E=A] [EB]2- [EB][EB] [Ec]2 | %81
w: |||
 [DB]2 [CE]2 [CE]4 | [EA][EB] [Ec]2- [Ec][CA] [CA]2- | [CA][=DA] [_DB]6 | %84
w: |||
 [CA][DB] [Ec]2 [Ae]2 [Ae]2- | [Ae][Ac] [EB]2 [EA]4 | A[AB][Ac][Ac]- [Ac]2 [Ac][EB]- | %87
w: |||
 [EB]2 [EA]6 | [Ac][EB][EA][CE]- [CE]2 [CF][CA]- | [CA]2 [CE]6 | %90
w: |||
 [A,C][B,D][CE][CA]- [CA]2 [CF][CA]- | [CA]2 [DB]6 | [CA][DB] [Ec]2 [Ae]2 [Ae]2- | %93
w: |||
 [Ae][Ac] [EB]2 [EA]4 | A[AB][Ac][Ac]- [Ac]2 [Ac][EB]- | [EB]2 [EA]6 | %96
w: |||
 [Ac][EB] [EA]2- [EA][EA] [EA]>[EA] | z4 z2 .c2 | [Af]2 [Ae]2- [Ae][Af] [Ae]>[Ac] | %99
w: |||
 [Ac]2 [GB][EA] [Ac][EB] [EA]2- | [EA]6 z2 |] %101
w: ||
V:2
 x8 | x8 | x8 | x8 | x8 | x8 | x8 | x8 | x8 | x8 | x8 | x8 | x8 | x8 | x8 | x8 | x8 | x8 | x8 | %19
 x8 | x8 | x8 | x8 | x8 | x8 | x8 | x8 | x8 | x8 | x8 | x8 | x8 | x8 | x8 | x8 | x8 | x8 | x8 | %38
 x8 | x8 | x8 | x8 | x8 | x8 | x8 | x8 | x8 | x8 | x8 | x8 | x8 | x8 | x8 | x8 | x8 | x8 | x8 | %57
 x8 | x8 | x8 | x8 | x8 | x8 | x8 | x8 | x8 | x8 | x8 | x8 | x8 | x8 | x8 | x8 | x8 | x8 | x8 | %76
 x8 | x8 | x8 | x8 | x8 | x8 | x8 | x8 | x8 | x8 | x8 | x8 | x8 | x8 | x8 | x8 | x8 | x8 | x8 | %95
 x8 | x8 | [EA][Ac] [GB]2- [GB][GB]A-[Ae] | x8 | x8 | x8 |] %101
V:3
 A,A, E,2- E,E, A,2 | A,2 A,2 A,4 | A,A, A,2- A,A, G,2- | G,G, A,6 | A,A, E,2- E,E, A,2 | %5
 A,2 A,2 A,4 | A,C B,2- B,C B,2 | A,2 G,6 | DC D2- DD[K:bass] A,2 | G,2 A,2 A,4 | %10
 A,G, A,2- A,/ z/ A, A,2- | A,A, G,6 | A,A, A,2[K:treble] C2 C2- | CE D2 C4 | EFEE- E2 ED- | %15
 D2 C6 | EDC[K:bass]A,- A,2 A,A,- | A,2 A,6 | E,E,A,E,- E,2 A,A,- | A,2 G,6 | %20
 A,A, A,2[K:treble] C2 C2- | CE D2 C4 | EFEE- E2 ED- | D2 C6 | A,A, E,2- E,E, A,2 | A,2 A,2 A,4 | %26
 A,A, A,2- A,A, G,2- | G,G, A,6 | A,A, E,2- E,E, A,2 | A,2 A,2 A,4 | A,C B,2- B,C B,2 | A,2 G,6 | %32
 DC D2- DD[K:bass] A,2 | G,2 A,2 A,4 | A,G, A,2- A,/ z/ A, A,2- | A,A, G,6 | %36
 A,A, A,2[K:treble] C2 C2- | CE D2 C4 | EFEE- E2 ED- | D2 C6 | EDC[K:bass]A,- A,2 A,A,- | A,2 A,6 | %42
 E,E,A,E,- E,2 A,A,- | A,2 G,6 | A,A, A,2[K:treble] C2 C2- | CE D2 C4 | EFEE- E2 ED- | D2 C6 | %48
 A,A, E,2- E,E, A,2 | A,2 A,2 A,4 | A,A, A,2- A,A, G,2- | G,G, A,6 | A,A, E,2- E,E, A,2 | %53
 A,2 A,2 A,4 | A,C B,2- B,C B,2 | A,2 G,6 | DC D2- DD[K:bass] A,2 | G,2 A,2 A,4 | %58
 A,G, A,2- A,/ z/ A, A,2- | A,A, G,6 | A,A, A,2[K:treble] C2 C2- | CE D2 C4 | EFEE- E2 ED- | %63
 D2 C6 | EDC[K:bass]A,- A,2 A,A,- | A,2 A,6 | E,E,A,E,- E,2 A,A,- | A,2 G,6 | %68
 A,A, A,2[K:treble] C2 C2- | CE D2 C4 | EFEE- E2 ED- | D2 C6 | A,A, E,2- E,E, A,2 | A,2 A,2 A,4 | %74
 A,A, A,2- A,A, G,2- | G,G, A,6 | A,A, E,2- E,E, A,2 | A,2 A,2 A,4 | A,C B,2- B,C B,2 | A,2 G,6 | %80
 DC D2- DD[K:bass] A,2 | G,2 A,2 A,4 | A,G, A,2- A,/ z/ A, A,2- | A,A, G,6 | %84
 A,A, A,2[K:treble] C2 C2- | CE D2 C4 | EFEE- E2 ED- | D2 C6 | EDC[K:bass]A,- A,2 A,A,- | A,2 A,6 | %90
 E,E,A,E,- E,2 A,A,- | A,2 G,6 | A,A, A,2[K:treble] C2 C2- | CE D2 C4 | EFEE- E2 ED- | D2 C6 | %96
 ED C2- CC C>C | CE E2- EEEC | C2 C2- CD C>E | E2 DC ED C2- | C6 z2 |] %101
V:4
 A,,A,, A,,2- A,,A,, A,,2 | A,,2 A,,2 A,,4 | A,,A,, C,2- C,C, E,2- | E,E, A,,6 | %4
 A,,A,, A,,2- A,,A,, A,,2 | A,,2 A,,2 A,,4 | A,,A,, B,,2- B,,B,, B,,2 | B,,2 E,6 | %8
 E,E, E,2- E,E, E,2 | E,2 A,,2 A,,4 | C,E, z2 z2 F,2- | F,B,, E,6 | A,,A,, z2 A,2 A,2- | %13
 A,A, A,2 A,4 | C,D,E,E,- E,2 E,E,- | E,2 [A,,A,]6 | A,A,A,,A,,- A,,2 A,,A,,- | A,,2 A,,6 | %18
 A,,A,,A,,A,,- A,,2 A,,A,,- | A,,2 E,6 | A,,A,, z2 A,2 A,2- | A,A, A,2 A,4 | C,D,E,E,- E,2 E,E,- | %23
 E,2 [A,,A,]6 | A,,A,, A,,2- A,,A,, A,,2 | A,,2 A,,2 A,,4 | A,,A,, C,2- C,C, E,2- | E,E, A,,6 | %28
 A,,A,, A,,2- A,,A,, A,,2 | A,,2 A,,2 A,,4 | A,,A,, B,,2- B,,B,, B,,2 | B,,2 E,6 | %32
 E,E, E,2- E,E, E,2 | E,2 A,,2 A,,4 | C,E, z2 z2 F,2- | F,B,, E,6 | A,,A,, z2 A,2 A,2- | %37
 A,A, A,2 A,4 | C,D,E,E,- E,2 E,E,- | E,2 [A,,A,]6 | A,A,A,,A,,- A,,2 A,,A,,- | A,,2 A,,6 | %42
 A,,A,,A,,A,,- A,,2 A,,A,,- | A,,2 E,6 | A,,A,, z2 A,2 A,2- | A,A, A,2 A,4 | C,D,E,E,- E,2 E,E,- | %47
 E,2 [A,,A,]6 | A,,A,, A,,2- A,,A,, A,,2 | A,,2 A,,2 A,,4 | A,,A,, C,2- C,C, E,2- | E,E, A,,6 | %52
 A,,A,, A,,2- A,,A,, A,,2 | A,,2 A,,2 A,,4 | A,,A,, B,,2- B,,B,, B,,2 | B,,2 E,6 | %56
 E,E, E,2- E,E, E,2 | E,2 A,,2 A,,4 | C,E, z2 z2 F,2- | F,B,, E,6 | A,,A,, z2 A,2 A,2- | %61
 A,A, A,2 A,4 | C,D,E,E,- E,2 E,E,- | E,2 [A,,A,]6 | A,A,A,,A,,- A,,2 A,,A,,- | A,,2 A,,6 | %66
 A,,A,,A,,A,,- A,,2 A,,A,,- | A,,2 E,6 | A,,A,, z2 A,2 A,2- | A,A, A,2 A,4 | C,D,E,E,- E,2 E,E,- | %71
 E,2 [A,,A,]6 | A,,A,, A,,2- A,,A,, A,,2 | A,,2 A,,2 A,,4 | A,,A,, C,2- C,C, E,2- | E,E, A,,6 | %76
 A,,A,, A,,2- A,,A,, A,,2 | A,,2 A,,2 A,,4 | A,,A,, B,,2- B,,B,, B,,2 | B,,2 E,6 | %80
 E,E, E,2- E,E, E,2 | E,2 A,,2 A,,4 | C,E, z2 z2 F,2- | F,B,, E,6 | A,,A,, z2 A,2 A,2- | %85
 A,A, A,2 A,4 | C,D,E,E,- E,2 E,E,- | E,2 [A,,A,]6 | A,A,A,,A,,- A,,2 A,,A,,- | A,,2 A,,6 | %90
 A,,A,,A,,A,,- A,,2 A,,A,,- | A,,2 E,6 | A,,A,, z2 A,2 A,2- | A,A, A,2 A,4 | C,D,E,E,- E,2 E,E,- | %95
 E,2 [A,,A,]6 | A,2 A,2- A,A, A,>A, | A,2 E,2- E,E, A,2 | A,2 A,2- A,A, A,>A, | %99
 A,2 E,2 E,2 [A,,A,]2- | [A,,A,]6 z2 |] %101

